svgs/duotone/chart-bullet.svg

<svg xmlns="http://www.w3.org/2000/svg" viewBox="0 0 512 512"><!-- Font Awesome Pro 6.0.0-alpha2 by @fontawesome - https://fontawesome.com License - https://fontawesome.com/license (Commercial License) --><defs><style>.fa-secondary{opacity:.4}</style></defs><path d="M256 64H160V112H256V64ZM256 176H160V224H256V176ZM256 448H352V400H256V448ZM480 288H384V336H464V400H384V448H480C497.6 448 512 433.6 512 416V320C512 302.4 497.6 288 480 288ZM256 336H352V288H256V336ZM480 64H288V112H464V176H288V224H480C497.6 224 512 209.6 512 192V96C512 78.4 497.6 64 480 64Z" class="fa-secondary"/><path d="M32 224H160V160H80C71.164 160 64 152.836 64 144C64 135.162 71.164 128 80 128H160V64H32C14.4 64 0 78.4 0 96V192C0 209.6 14.4 224 32 224ZM304 352H256V384H304C312.836 384 320 376.836 320 368C320 359.162 312.836 352 304 352ZM64 368C64 359.162 71.164 352 80 352H256V288H32C14.4 288 0 302.4 0 320V416C0 433.6 14.4 448 32 448H256V384H80C71.164 384 64 376.836 64 368ZM368 272C359.164 272 352 279.162 352 288V448C352 456.836 359.164 464 368 464S384 456.836 384 448V288C384 279.162 376.836 272 368 272ZM256 160V224C256 232.836 263.164 240 272 240S288 232.836 288 224V160H368C376.836 160 384 152.836 384 144C384 135.162 376.836 128 368 128H288V64C288 55.162 280.836 48 272 48S256 55.162 256 64V128H160V160H256Z" class="fa-primary"/></svg>

<svg xmlns="http://www.w3.org/2000/svg" viewBox="0 0 512 512"><!--! Font Awesome Pro 6.0.0-alpha3 by @fontawesome - https://fontawesome.com License - https://fontawesome.com/license (Commercial License) --><defs><style>.fa-secondary{opacity:.4}</style></defs><path class="fa-primary" d="M32 224h128V160H80C71.16 160 64 152.8 64 144C64 135.2 71.16 128 80 128H160V64H32C14.4 64 0 78.4 0 96v96C0 209.6 14.4 224 32 224zM304 352H256v32h48c8.836 0 16-7.164 16-16C320 359.2 312.8 352 304 352zM64 368C64 359.2 71.16 352 80 352H256V288H32c-17.6 0-32 14.4-32 32v96c0 17.6 14.4 32 32 32h224v-64H80C71.16 384 64 376.8 64 368zM368 272C359.2 272 352 279.2 352 288v160c0 8.836 7.164 16 16 16S384 456.8 384 448V288C384 279.2 376.8 272 368 272zM256 160v64c0 8.836 7.164 16 16 16S288 232.8 288 224V160h80C376.8 160 384 152.8 384 144C384 135.2 376.8 128 368 128H288V64c0-8.838-7.164-16-16-16S256 55.16 256 64v64H160v32H256z"/><path class="fa-secondary" d="M256 64H160v48h96V64zM256 176H160V224h96V176zM256 448h96v-48h-96V448zM480 288h-96v48h80v64H384V448h96c17.6 0 32-14.4 32-32v-96C512 302.4 497.6 288 480 288zM256 336h96V288h-96V336zM480 64h-192v48h176v64H288V224h192c17.6 0 32-14.4 32-32V96C512 78.4 497.6 64 480 64z"/></svg>
